svg/fluentui-system-icons/ic_fluent_text_column_two_20_regular.svg

<svg width="20" height="20" viewBox="0 0 20 20" fill="none" xmlns="http://www.w3.org/2000/svg">
<path d="M17 5.5C17 5.22386 16.7761 5 16.5 5H11.5C11.2239 5 11 5.22386 11 5.5C11 5.77614 11.2239 6 11.5 6H16.5C16.7761 6 17 5.77614 17 5.5ZM9 5.5C9 5.22386 8.77614 5 8.5 5H3.5C3.22386 5 3 5.22386 3 5.5C3 5.77614 3.22386 6 3.5 6H8.5C8.77614 6 9 5.77614 9 5.5ZM17 8.5C17 8.22386 16.7761 8 16.5 8H11.5C11.2239 8 11 8.22386 11 8.5C11 8.77614 11.2239 9 11.5 9H16.5C16.7761 9 17 8.77614 17 8.5ZM9 8.5C9 8.22386 8.77614 8 8.5 8H3.5C3.22386 8 3 8.22386 3 8.5C3 8.77614 3.22386 9 3.5 9H8.5C8.77614 9 9 8.77614 9 8.5ZM17 11.5C17 11.2239 16.7761 11 16.5 11H11.5C11.2239 11 11 11.2239 11 11.5C11 11.7761 11.2239 12 11.5 12H16.5C16.7761 12 17 11.7761 17 11.5ZM9 11.5C9 11.2239 8.77614 11 8.5 11H3.5C3.22386 11 3 11.2239 3 11.5C3 11.7761 3.22386 12 3.5 12H8.5C8.77614 12 9 11.7761 9 11.5ZM17 14.5C17 14.2239 16.7761 14 16.5 14H11.5C11.2239 14 11 14.2239 11 14.5C11 14.7761 11.2239 15 11.5 15H16.5C16.7761 15 17 14.7761 17 14.5ZM9 14.5C9 14.2239 8.77614 14 8.5 14H3.5C3.22386 14 3 14.2239 3 14.5C3 14.7761 3.22386 15 3.5 15H8.5C8.77614 15 9 14.7761 9 14.5Z" fill="#212121"/>
</svg>

<svg xmlns="http://www.w3.org/2000/svg" width="20" height="20"><path d="M17 5.5a.5.5 0 0 0-.5-.5h-5a.5.5 0 0 0 0 1h5a.5.5 0 0 0 .5-.5Zm-8 0a.5.5 0 0 0-.5-.5h-5a.5.5 0 0 0 0 1h5a.5.5 0 0 0 .5-.5Zm8 3a.5.5 0 0 0-.5-.5h-5a.5.5 0 0 0 0 1h5a.5.5 0 0 0 .5-.5Zm-8 0a.5.5 0 0 0-.5-.5h-5a.5.5 0 0 0 0 1h5a.5.5 0 0 0 .5-.5Zm8 3a.5.5 0 0 0-.5-.5h-5a.5.5 0 0 0 0 1h5a.5.5 0 0 0 .5-.5Zm-8 0a.5.5 0 0 0-.5-.5h-5a.5.5 0 0 0 0 1h5a.5.5 0 0 0 .5-.5Zm8 3a.5.5 0 0 0-.5-.5h-5a.5.5 0 0 0 0 1h5a.5.5 0 0 0 .5-.5Zm-8 0a.5.5 0 0 0-.5-.5h-5a.5.5 0 0 0 0 1h5a.5.5 0 0 0 .5-.5Z"/></svg>
